!!!COM: Gabriel Faure/
!!!CNT: Francais
!!!TXO: Francais
!!!OTL: Tristesse
!!!OPS: Op. 6
!!!ONM: No. 2
!!!LYR: The/ophile Gautier
!!!ENC: Jacob Pegg
!!!YOR: Album of Twenty Songs (Vingt Me/lodies,) Volume I
!!!YOR: Edward B. Marks Music Corporation, RCA Building, Radio
!!!YOR: City, New York 20, N.Y.
!!!ODT: 1872/
!!NB: Vocal melody and text only encoded.
!!NB: First instance of melodic material only encoded.
**kern	**silbe
*clef G2	*
*k[b-]	*
*M6/8	*
*MM[andante]	*
!!created: 8/21/03 21:09
!!proofed and posted: 8/21/03 22:16
!!edit time: 21 min.
=1	=1
2r	.
4r	.
=2	=2
4r	.
2r	.
=3	=3
4r	.
8r	.
{8a	{A-
16g	-vril
16f	est
16g	de
16a	re-
=4	=4
4.b-	-tour,
16b-	La
16a	pre-
8g	-mie\-
16a	-re
16b-	des
=5	=5
4cc	ro-
8cc}	-ses}
{16cc	{De
16b-	ses
8a	le\-
16b-	-vres
16cc	mi-
=6	=6
4dd	-clo-
8dd}	-ses,
{8cc	{Rit
16b-	au
16cc	pre-
16b-	-mier
16cc	beau
=7	=7
4a}	jour,}
{(16a	{La
16b-)	|
8.cc	ter-
16cc	-re
16dd	bien
16ee-	heu-
=8	=8
4ee-	-reu-
8g	-se
8a	S'ouvre
16dd	et
16cc	s'e/-
16b-	-pa-
16a	-nou-
=9	=9
4b-}	-it,}
{8b-	{Tout
8.cc	ai-
16cc	-me,
16cc	tout
16cc	jou-
=10	=10
4.cc#}	-it,}
8r	.
8r	.
{8dd	{He/-
=11	=11
4.ee	-las!
8ff	j'ai
8ff	dans
8ff	le
=12	=12
4.cc#	coeur
8dd	u-
8dd	-ne
8dd	tris-
=13	=13
4g	-tesse
8g	af-
4.a	-fren-
=14	=14
4.d}	-se!}
8r	.
4r	.
*-	*-
